X:30
T:Brosna
R:slide
S:https://thesession.org/tunes/1414
M:12/8
L:1/8
Z:Trevor Jennings
K:Gmajor
D2G G2A BAB d2B|A2D FED A2D FED|
G2G G2A BAB d2B|A2D FED G3 G3 :|
|:g2f efg f2e d2B|c2B A2B c2d e2f|
g2f efg f2e d2B|c2A FED G3 G3 :|

